build/svg/cmd/lc_editglossary.svg

<?xml version="1.0" encoding="UTF-8" standalone="no"?>
<svg
   xmlns:dc="http://purl.org/dc/elements/1.1/"
   xmlns:cc="http://creativecommons.org/ns#"
   xmlns:rdf="http://www.w3.org/1999/02/22-rdf-syntax-ns#"
   xmlns:svg="http://www.w3.org/2000/svg"
   xmlns="http://www.w3.org/2000/svg"
   xmlns:sodipodi="http://sodipodi.sourceforge.net/DTD/sodipodi-0.dtd"
   xmlns:inkscape="http://www.inkscape.org/namespaces/inkscape"
   viewBox="0 0 24 24"
   version="1.1"
   id="svg4"
   sodipodi:docname="lc_editglossary.svg"
   inkscape:export-filename="/home/jupiter007/Libreoffice yaru theme fullcolor/build/cmd/lc_editglossary.png"
   inkscape:export-xdpi="96"
   inkscape:export-ydpi="96"
   inkscape:version="0.92.5 (2060ec1f9f, 2020-04-08)">
  <metadata
     id="metadata10">
    <rdf:RDF>
      <cc:Work
         rdf:about="">
        <dc:format>image/svg+xml</dc:format>
        <dc:type
           rdf:resource="http://purl.org/dc/dcmitype/StillImage" />
      </cc:Work>
    </rdf:RDF>
  </metadata>
  <defs
     id="defs8" />
  <sodipodi:namedview
     pagecolor="#ffffff"
     bordercolor="#666666"
     borderopacity="1"
     objecttolerance="10"
     gridtolerance="10"
     guidetolerance="10"
     inkscape:pageopacity="0"
     inkscape:pageshadow="2"
     inkscape:window-width="1920"
     inkscape:window-height="1011"
     id="namedview6"
     showgrid="false"
     inkscape:zoom="9.8333333"
     inkscape:cx="0.66101695"
     inkscape:cy="12"
     inkscape:window-x="0"
     inkscape:window-y="32"
     inkscape:window-maximized="1"
     inkscape:current-layer="svg4" />
  <path
     inkscape:connector-curvature="0"
     style="opacity:1;fill:#808080;fill-opacity:1"
     d="M 5.5,3.9999998 4.96875,4.9687498 4,5.4999998 4.96875,6.0312498 5.5,6.9999998 6.03125,6.0312498 7,5.4999998 6.03125,4.9687498 Z"
     id="path844" />
  <path
     inkscape:connector-curvature="0"
     style="opacity:1;fill:#808080;fill-opacity:1"
     d="m 10.5,3.9999998 -0.5312505,0.96875 -0.96875,0.53125 0.96875,0.53125 L 10.5,6.9999998 11.03125,6.0312498 12,5.4999998 11.03125,4.9687498 Z"
     id="path842" />
  <path
     inkscape:connector-curvature="0"
     style="opacity:0.6;fill:#000000"
     d="M 17.171874,3.9999998 4,17.171875 6.828125,20 19.999999,6.8281248 Z"
     id="path840" />
  <path
     inkscape:connector-curvature="0"
     style="fill:#ffffff;fill-opacity:1"
     d="M 17.103514,5.4824217 18.517576,6.8964842 15.419921,9.996094 14.003905,8.5800779 Z"
     id="path838" />
  <path
     inkscape:connector-curvature="0"
     style="opacity:1;fill:#808080;fill-opacity:1"
     d="M 7.5,7.9999998 6.96875,8.9687498 6,9.4999998 6.96875,10.03125 7.5,11 8.03125,10.03125 8.9999995,9.4999998 8.03125,8.9687498 Z"
     id="path2" />
  <rect
     style="opacity:1;fill:#fa9381;fill-opacity:1;stroke:none;stroke-width:1.00675654;stroke-linecap:round;stroke-linejoin:round;stroke-miterlimit:4;stroke-dasharray:none;stroke-opacity:1"
     id="rect819"
     width="11.149147"
     height="2"
     x="-8.3139219"
     y="15.971854"
     ry="0"
     transform="rotate(-45)" />
</svg>

<svg xmlns="http://www.w3.org/2000/svg" viewBox="0 0 24 24"><path d="M5.5 4l-.531.969L4 5.5l.969.531L5.5 7l.531-.969L7 5.5l-.969-.531zM10.5 4l-.531.969L9 5.5l.969.531L10.5 7l.531-.969L12 5.5l-.969-.531z" fill="gray"/><path d="M17.172 4L4 17.172 6.828 20 20 6.828z" opacity=".6"/><path d="M17.104 5.482l1.414 1.414-3.098 3.1-1.416-1.416z" fill="#fff"/><path d="M7.5 8l-.531.969L6 9.5l.969.531L7.5 11l.531-.969L9 9.5l-.969-.531z" fill="gray"/><rect width="11.149" height="2" x="-8.314" y="15.972" ry="0" transform="rotate(-45)" fill="#fa9381"/></svg>
